X: 3
T: The Dingle Regatta
R: slide
M: 12/8
L: 1/8
K: Gmaj
|: B |d^cd e2 d B^AB d2 B | A2 A A^GA B2 A =G2 B |
d^cd e3 B^AB d3 | AA/B/c B2 A G3 G2 :|
|: B |d2 d def g2 g gfg | a2 a a^ga b2 a =gg/f/e |
d3- def gag gfg | a2 g f2 e dd/e/f g2 :|
d |gbg dgd BdB G3 | FF/G/A DEF G2 B d^cd |
.g3 .d3 .B3 .G3 | FGA D2 F G3 GB/c/d |
g/a/bg d3 B/c/dB G3 | F2 A DCD G2 B dd/e/f |
gbg dcd B^AB GFG | FGA DEF G3- G2 |]


Tune 23	Setting 24672

